images/Icons/IconConfidential.svg

<?xml version="1.0" encoding="UTF-8"?>
<svg width="82px" height="82px" viewBox="0 0 82 82" version="1.1" xmlns="http://www.w3.org/2000/svg" xmlns:xlink="http://www.w3.org/1999/xlink">
    <!-- Generator: Sketch 56.3 (81716) - https://sketch.com -->
    <title>noun_confidentiality_1326991</title>
    <desc>Created with Sketch.</desc>
    <g id="Page-1" stroke="none" stroke-width="1" fill="none" fill-rule="evenodd">
        <g id="STYLE-Guide" transform="translate(-1178.000000, -1105.000000)" fill="#3965ED" fill-rule="nonzero">
            <g id="noun_confidentiality_1326991" transform="translate(1179.000000, 1106.000000)">
                <g id="Group">
                    <path d="M78.7878788,51.1515152 L75.1515152,51.1515152 L75.1515152,45.0909091 C75.1515152,39.5151515 70.4242424,35.030303 64.7272727,35.5151515 L64.7272727,18.4242424 C64.7272727,17.9393939 64.6060606,17.5757576 64.2424242,17.3333333 L46.7878788,0.363636364 C46.7878788,0.363636364 46.7878788,0.363636364 46.7878788,0.363636364 C46.5454545,0.121212121 46.1818182,0 45.9393939,0 L1.21212121,0 C0.484848485,0 0,0.484848485 0,1.21212121 L0,78.7878788 C0,79.5151515 0.484848485,80 1.21212121,80 L63.5151515,80 C64.2424242,80 64.7272727,79.5151515 64.7272727,78.7878788 L64.7272727,74.6666667 L76,74.6666667 C78.1818182,74.6666667 80,72.8484848 80,70.6666667 L80,52.3636364 C80,51.6363636 79.5151515,51.1515152 78.7878788,51.1515152 Z M72.7272727,45.0909091 L72.7272727,51.1515152 L58.3030303,51.1515152 L58.3030303,45.0909091 C58.3030303,41.0909091 61.5757576,37.8181818 65.5757576,37.8181818 C69.5757576,37.8181818 72.7272727,41.0909091 72.7272727,45.0909091 Z M60.6060606,17.0909091 L47.2727273,17.0909091 L47.2727273,4.12121212 L60.6060606,17.0909091 Z M62.3030303,77.5757576 L2.42424242,77.5757576 L2.42424242,2.42424242 L44.7272727,2.42424242 L44.7272727,18.3030303 C44.7272727,19.030303 45.2121212,19.5151515 45.9393939,19.5151515 L62.3030303,19.5151515 L62.3030303,36 C58.3030303,37.4545455 55.8787879,41.0909091 55.8787879,45.0909091 L55.8787879,51.1515152 L52.2424242,51.1515152 C51.5151515,51.1515152 51.030303,51.6363636 51.030303,52.3636364 L51.030303,70.6666667 C51.030303,72.8484848 52.8484848,74.6666667 55.030303,74.6666667 L62.4242424,74.6666667 L62.4242424,77.5757576 L62.3030303,77.5757576 Z M77.5757576,70.6666667 C77.5757576,71.5151515 76.8484848,72.2424242 76,72.2424242 L55.030303,72.2424242 C54.1818182,72.2424242 53.4545455,71.5151515 53.4545455,70.6666667 L53.4545455,53.5757576 C62.5454545,53.5757576 68.6060606,53.5757576 77.5757576,53.5757576 L77.5757576,70.6666667 Z" id="Shape" stroke-opacity="0.1" stroke="#000000" stroke-width="0.5"></path>
                    <path d="M64.2424242,66.1818182 L64.2424242,68.1212121 C64.2424242,68.8484848 64.7272727,69.3333333 65.4545455,69.3333333 C66.1818182,69.3333333 66.6666667,68.8484848 66.6666667,68.1212121 L66.6666667,66.1818182 C68.1212121,65.6969697 69.2121212,64.2424242 69.2121212,62.6666667 C69.2121212,60.6060606 67.5151515,58.9090909 65.4545455,58.9090909 C63.3939394,58.9090909 61.6969697,60.6060606 61.6969697,62.6666667 C61.8181818,64.2424242 62.7878788,65.6969697 64.2424242,66.1818182 Z M65.4545455,61.3333333 C66.1818182,61.3333333 66.7878788,61.9393939 66.7878788,62.6666667 C66.7878788,63.3939394 66.1818182,64 65.4545455,64 C64.7272727,64 64.1212121,63.3939394 64.1212121,62.6666667 C64.2424242,61.9393939 64.7272727,61.3333333 65.4545455,61.3333333 Z" id="Shape" stroke-opacity="0.1" stroke="#000000"></path>
                    <path d="M8.12121212,19.5151515 L38.9090909,19.5151515 C39.6363636,19.5151515 40.1212121,19.030303 40.1212121,18.3030303 L40.1212121,7.27272727 C40.1212121,6.54545455 39.6363636,6.06060606 38.9090909,6.06060606 L8.12121212,6.06060606 C7.39393939,6.06060606 6.90909091,6.54545455 6.90909091,7.27272727 L6.90909091,18.3030303 C6.90909091,18.9090909 7.51515152,19.5151515 8.12121212,19.5151515 Z M9.33333333,8.48484848 L37.6969697,8.48484848 L37.6969697,17.0909091 L9.33333333,17.0909091 L9.33333333,8.48484848 Z" id="Shape" stroke="#EBF0FD" stroke-width="0.5"></path>
                    <path d="M8.12121212,29.6969697 L52.2424242,29.6969697 C52.969697,29.6969697 53.4545455,29.2121212 53.4545455,28.4848485 C53.4545455,27.7575758 52.969697,27.2727273 52.2424242,27.2727273 L8.12121212,27.2727273 C7.39393939,27.2727273 6.90909091,27.7575758 6.90909091,28.4848485 C6.90909091,29.2121212 7.51515152,29.6969697 8.12121212,29.6969697 Z" id="Path" stroke-opacity="0.1" stroke="#000000" stroke-width="0.5"></path>
                    <path d="M8.12121212,39.7575758 L52.2424242,39.7575758 C52.969697,39.7575758 53.4545455,39.2727273 53.4545455,38.5454545 C53.4545455,37.8181818 52.969697,37.3333333 52.2424242,37.3333333 L8.12121212,37.3333333 C7.39393939,37.3333333 6.90909091,37.8181818 6.90909091,38.5454545 C6.90909091,39.1515152 7.51515152,39.7575758 8.12121212,39.7575758 Z" id="Path" stroke-opacity="0.1" stroke="#000000" stroke-width="0.5"></path>
                    <path d="M8.12121212,49.6969697 L52.2424242,49.6969697 C52.969697,49.6969697 53.4545455,49.2121212 53.4545455,48.4848485 C53.4545455,47.7575758 52.969697,47.2727273 52.2424242,47.2727273 L8.12121212,47.2727273 C7.39393939,47.2727273 6.90909091,47.7575758 6.90909091,48.4848485 C6.90909091,49.2121212 7.51515152,49.6969697 8.12121212,49.6969697 Z" id="Path" stroke-opacity="0.1" stroke="#000000" stroke-width="0.5"></path>
                    <path d="M46.1818182,57.3333333 L8.12121212,57.3333333 C7.39393939,57.3333333 6.90909091,57.8181818 6.90909091,58.5454545 C6.90909091,59.2727273 7.39393939,59.7575758 8.12121212,59.7575758 L46.1818182,59.7575758 C46.9090909,59.7575758 47.3939394,59.2727273 47.3939394,58.5454545 C47.3939394,57.9393939 46.7878788,57.3333333 46.1818182,57.3333333 Z" id="Path" stroke-opacity="0.1" stroke="#000000" stroke-width="0.5"></path>
                    <path d="M46.1818182,67.3939394 L8.12121212,67.3939394 C7.39393939,67.3939394 6.90909091,67.8787879 6.90909091,68.6060606 C6.90909091,69.3333333 7.39393939,69.8181818 8.12121212,69.8181818 L46.1818182,69.8181818 C46.9090909,69.8181818 47.3939394,69.3333333 47.3939394,68.6060606 C47.3939394,67.8787879 46.7878788,67.3939394 46.1818182,67.3939394 Z" id="Path" stroke-opacity="0.1" stroke="#000000" stroke-width="0.5"></path>
                </g>
            </g>
        </g>
    </g>
</svg>

<?xml version="1.0" encoding="utf-8"?>
<!-- Generator: Adobe Illustrator 22.0.0, SVG Export Plug-In . SVG Version: 6.00 Build 0)  -->
<svg version="1.1" id="Layer_1" xmlns="http://www.w3.org/2000/svg" xmlns:xlink="http://www.w3.org/1999/xlink" x="0px" y="0px"
	 viewBox="0 0 82 82" style="enable-background:new 0 0 82 82;" xml:space="preserve">
<style type="text/css">
	.st0{stroke:#000000;stroke-width:0.5;stroke-opacity:0.1;}
	.st1{stroke:#000000;stroke-opacity:0.1;}
	.st2{stroke:#EBF0FD;stroke-width:0.5;}
</style>
<title>noun_confidentiality_1326991</title>
<desc>Created with Sketch.</desc>
<g id="Page-1">
	<g id="STYLE-Guide" transform="translate(-1178.000000, -1105.000000)">
		<g id="noun_confidentiality_1326991" transform="translate(1179.000000, 1106.000000)">
			<g id="Group">
				<path id="Shape" class="st0" d="M78.8,51.2h-3.6v-6.1c0-5.6-4.7-10.1-10.4-9.6V18.4c0-0.5-0.1-0.8-0.5-1.1l-17.5-17l0,0
					C46.5,0.1,46.2,0,45.9,0H1.2C0.5,0,0,0.5,0,1.2v77.6C0,79.5,0.5,80,1.2,80h62.3c0.7,0,1.2-0.5,1.2-1.2v-4.1H76c2.2,0,4-1.8,4-4
					V52.4C80,51.6,79.5,51.2,78.8,51.2z M72.7,45.1v6.1H58.3v-6.1c0-4,3.3-7.3,7.3-7.3S72.7,41.1,72.7,45.1z M60.6,17.1H47.3v-13
					L60.6,17.1z M62.3,77.6H2.4V2.4h42.3v15.9c0,0.7,0.5,1.2,1.2,1.2h16.4V36c-4,1.5-6.4,5.1-6.4,9.1v6.1h-3.6
					c-0.7,0-1.2,0.5-1.2,1.2v18.3c0,2.2,1.8,4,4,4h7.4v2.9H62.3z M77.6,70.7c0,0.8-0.7,1.6-1.6,1.6H55c-0.8,0-1.6-0.7-1.6-1.6V53.6
					c9.1,0,15.2,0,24.1,0V70.7z"/>
				<path id="Shape_1_" class="st1" d="M64.2,66.2v1.9c0,0.7,0.5,1.2,1.2,1.2s1.2-0.5,1.2-1.2v-1.9c1.5-0.5,2.5-1.9,2.5-3.5
					c0-2.1-1.7-3.8-3.8-3.8c-2.1,0-3.8,1.7-3.8,3.8C61.8,64.2,62.8,65.7,64.2,66.2z M65.5,61.3c0.7,0,1.3,0.6,1.3,1.3
					c0,0.7-0.6,1.3-1.3,1.3s-1.3-0.6-1.3-1.3C64.2,61.9,64.7,61.3,65.5,61.3z"/>
				<path id="Shape_2_" class="st2" d="M8.1,19.5h30.8c0.7,0,1.2-0.5,1.2-1.2v-11c0-0.7-0.5-1.2-1.2-1.2H8.1c-0.7,0-1.2,0.5-1.2,1.2
					v11C6.9,18.9,7.5,19.5,8.1,19.5z M9.3,8.5h28.4v8.6H9.3V8.5z"/>
				<path id="Path" class="st0" d="M8.1,29.7h44.1c0.7,0,1.2-0.5,1.2-1.2c0-0.7-0.5-1.2-1.2-1.2H8.1c-0.7,0-1.2,0.5-1.2,1.2
					C6.9,29.2,7.5,29.7,8.1,29.7z"/>
				<path id="Path_1_" class="st0" d="M8.1,39.8h44.1c0.7,0,1.2-0.5,1.2-1.2c0-0.7-0.5-1.2-1.2-1.2H8.1c-0.7,0-1.2,0.5-1.2,1.2
					C6.9,39.2,7.5,39.8,8.1,39.8z"/>
				<path id="Path_2_" class="st0" d="M8.1,49.7h44.1c0.7,0,1.2-0.5,1.2-1.2s-0.5-1.2-1.2-1.2H8.1c-0.7,0-1.2,0.5-1.2,1.2
					S7.5,49.7,8.1,49.7z"/>
				<path id="Path_3_" class="st0" d="M46.2,57.3H8.1c-0.7,0-1.2,0.5-1.2,1.2c0,0.7,0.5,1.2,1.2,1.2h38.1c0.7,0,1.2-0.5,1.2-1.2
					C47.4,57.9,46.8,57.3,46.2,57.3z"/>
				<path id="Path_4_" class="st0" d="M46.2,67.4H8.1c-0.7,0-1.2,0.5-1.2,1.2c0,0.7,0.5,1.2,1.2,1.2h38.1c0.7,0,1.2-0.5,1.2-1.2
					C47.4,67.9,46.8,67.4,46.2,67.4z"/>
			</g>
		</g>
	</g>
</g>
</svg>
